icons/plexis/48/cmplayer.svg

<svg viewBox="0 0 48 48" xmlns="http://www.w3.org/2000/svg" xmlns:xlink="http://www.w3.org/1999/xlink">
  <linearGradient id="a" gradientUnits="userSpaceOnUse" x2="0" y1="47" y2="1">
    <stop offset="0" stop-color="#383838"/>
    <stop offset="1" stop-color="#414142"/>
  </linearGradient>
  <path d="m47 24c0 22.703-.297 23-23 23-22.703 0-23-.297-23-23 0-22.703.297-23 23-23 22.703 0 23 .297 23 23z" fill="url(#a)"/>
  <path d="m25.439 10.01a15 15 0 0 0-15.439 14.99 15 15 0 0 0  30 0 15 15 0 0 0-14.563-14.994zm-10.06 7.473c2.451-.155 5.859 3.423 9.371 7.238-4.726-2.272-9.254-6.301-12.789-.559.51-4.72 1.741-6.574 3.418-6.68zm19.15 0c1.677.106 2.906 1.96 3.416 6.68-3.535-5.742-8.06-1.713-12.787.559 3.512-3.815 6.92-7.393 9.371-7.238zm-9.783 7.596c-5.915 6.426-11.533 12.179-12.789.561 3.535 5.742 8.06 1.711 12.789-.561zm.412 0c4.726 2.272 9.252 6.303 12.787.561-1.256 11.618-6.872 5.865-12.787-.561z" fill-opacity=".098"/>
  <path d="m24.438 9.01a15 15 0 0 0-15.44 14.99 15 15 0 0 0  30.002 0 15 15 0 0 0-14.562-14.99zm-10.063 7.47c2.451-.154 5.859 3.423 9.371 7.239-4.726-2.272-9.254-6.301-12.789-.559.51-4.72 1.741-6.574 3.418-6.68zm19.154 0c1.681.106 2.906 1.96 3.416 6.68-3.535-5.742-8.061-1.713-12.785.559 3.51-3.816 6.92-7.393 9.369-7.239zm-9.783 7.6c-5.915 6.422-11.533 12.17-12.789.557 3.535 5.742 8.063 1.711 12.789-.557zm.414 0c4.724 2.268 9.25 6.299 12.785.557-1.256 11.613-6.875 5.865-12.785-.557z" fill="#f9f9f9"/>
</svg>

<svg xmlns="http://www.w3.org/2000/svg" viewBox="0 0 48 48">
 <defs>
  <linearGradient id="linearGradient3764" y1="47" x2="0" y2="1" gradientUnits="userSpaceOnUse">
   <stop style="stop-color:#383838;stop-opacity:1"/>
   <stop offset="1" style="stop-color:#414142;stop-opacity:1"/>
  </linearGradient>
 </defs>
 <g>
  
  
  
 </g>
 <g>
  <path d="m 47,24 C 47,46.703 46.703,47 24,47 1.297,47 1,46.703 1,24 1,1.297 1.297,1 24,1 46.703,1 47,1.297 47,24 z" style="fill:url(#linearGradient3764);fill-opacity:1"/>
 </g>
 <g>
  
 </g>
 <path d="M 25.439 10.01 A 15 15 0 0 0 10 25 a 15 15 0 0 0 30 0 15 15 0 0 0 -14.563 -14.994 z m -10.06 7.473 c 2.451 -0.155 5.859 3.423 9.371 7.238 -4.726 -2.272 -9.254 -6.301 -12.789 -0.559 0.51 -4.72 1.741 -6.574 3.418 -6.68 z m 19.15 0 c 1.677 0.106 2.906 1.96 3.416 6.68 -3.535 -5.742 -8.06 -1.713 -12.787 0.559 3.512 -3.815 6.92 -7.393 9.371 -7.238 z m -9.783 7.596 c -5.915 6.426 -11.533 12.179 -12.789 0.561 3.535 5.742 8.06 1.711 12.789 -0.561 z m 0.412 0 c 4.726 2.272 9.252 6.303 12.787 0.561 -1.256 11.618 -6.872 5.865 -12.787 -0.561 z" style="fill:#000;fill-opacity:0.098"/>
 <path d="M 24.438 9.01 A 15 15 0 0 0 8.998 24 A 15 15 0 0 0 39 24 A 15 15 0 0 0 24.438 9.01 z M 14.375 16.48 C 16.826 16.326 20.234 19.903 23.746 23.719 C 19.02 21.447 14.492 17.418 10.957 23.16 C 11.467 18.44 12.698 16.586 14.375 16.48 z M 33.529 16.48 C 35.21 16.586 36.435 18.44 36.945 23.16 C 33.41 17.418 28.884 21.447 24.16 23.719 C 27.67 19.903 31.08 16.326 33.529 16.48 z M 23.746 24.08 C 17.831 30.502 12.213 36.25 10.957 24.637 C 14.492 30.379 19.02 26.348 23.746 24.08 z M 24.16 24.08 C 28.884 26.348 33.41 30.379 36.945 24.637 C 35.689 36.25 30.07 30.502 24.16 24.08 z" style="fill:#f9f9f9;fill-opacity:1"/>
</svg>
